X:1
T:Title
%%score { ( 1 4 5 ) | ( 2 3 ) }
L:1/8
Q:1/4=78
M:6/8
K:Bb
V:1 treble nm="Grand Piano"
V:4 treble 
V:5 treble 
V:2 bass 
V:3 bass 
V:1
 [Fd]>cB [DF]=EF | [_DG]3 z3 | [Fd]>cB [DF]cB | [EA]6[K:bass][K:treble] | [Fe]dc AGF | %5
w: Haldor~Lillenas * * * * *|||||
 [DB]3 [Fd]3 | [=Ec]>BA GAG | F6 | [Fd]>cB [DF]=EF | [_DG]3 z3 | [^Fd]ed [FA]Bc | [DGB]6 | %12
w: |||||||
 [GB]>AG [_DB]AG | F3 [Fd]3 | .[=Ed]3 z3 | c6 | [DB]>[Dc][DB] [EA]3 | G>AG [DF]3 | %18
w: ||||||
 [DB][DB][DB] [Fd]>[Fc][FB] | c6 | [DB]>[Dc][DB] [EA]3 | GAG [DF]3 | %22
w: ||||
 [EG][EB][Ge] [Fd]2 [DFB]/[EFc]/ | [DFB]6 |] %24
w: ||
V:2
 z z/ E/D z _D=D | =E,E,E, [F,B,D]3 | z z/ E/D z DD | [C,F,]C,C, .[F,A,]3 | %4
 z[K:treble] FE[K:bass] EEE | .[B,,,B,,]3 [F,B,D]3 | z z/[K:treble] =E/E EEE | %7
 F,2- [F,-B,] [F,C]3 | z z/ E/D z _D=D | =E,E,E, [F,B,D]3 | z[K:treble] ^FF z GA | G,D,B,, .G,,3 | %12
 z z/[K:treble] F/E[K:bass] z _DD | [F,D][F,B,][F,B,] B,,F,F, | .C,>=E=E, G,,[E,G,B,CE][E,G,B,CE] | %15
 F-[F,F][G,B,] .[F,A,]3 | [B,,F,]>[B,,F,][B,,F,] [C,F,]3 | [F,E]>[F,E][F,E] [B,,F,]3 | %18
 [B,,F,][B,,F,][B,,F,] [B,,B,]>[C,A,][D,B,] | [F,A,F]2 [G,B,] .[F,A,]3 | %20
 [B,,F,]>[B,,F,][B,,F,] [C,F,]3 | [F,E][F,E][F,E] [B,,B,]3 | [E,B,][E,G,][E,B,] [F,B,]2 F,/F,,/ | %23
 B,,6 |] %24
V:3
 .[B,,B,]3 .[B,,B,]3 | x6 | .[B,,B,]3 .[B,,F,]3 | x6 | .[F,,F,]3[K:treble][K:bass] .[F,A,C]3 | x6 | %6
 [C,,C,]3[K:treble] z [G,C]2 | .A,3 z3 | .[B,,B,]3 .[B,,B,]3 | x6 | .[D,A,]3[K:treble] .[D,D]3 | %11
 x6 | .[E,,E,]3[K:treble][K:bass] .[=E,,=E,]3 | x6 | z .=E,2 z3 | .[F,A,]3 z3 | x6 | x6 | x6 | x6 | %20
 x6 | x6 | x6 | x6 |] %24
V:4
 x6 | B,B,B, F3 | x6 | z[K:bass] F,F,[K:treble] .C3 | x6 | x6 | x6 | z A,D .E3 | x6 | B,B,B, F3 | %10
 x6 | x6 | x6 | z DD z [B,D][B,D] | z z/ c/[G,B,C=EG] [Ed]cG | z A,=E ._E3 | x6 | x6 | x6 | %19
 z2 =E ._E3 | x6 | x6 | x6 | x6 |] %24
V:5
 x6 | x6 | x6 | x[K:bass] x2[K:treble] x3 | x6 | x6 | x6 | x6 | x6 | x6 | x6 | x6 | x6 | x6 | %14
 z .[G,B,C]2 z3 | x6 | x6 | x6 | x6 | x6 | x6 | x6 | x6 | x6 |] %24

